src/images/icons/Icon-about-Linkedin.svg

<svg width="24" height="24" fill="none" xmlns="http://www.w3.org/2000/svg"><defs><clipPath id="a"><path fill="#fff" fill-opacity="0" d="M0 0h24v24H0z"/></clipPath></defs><g clip-path="url(#a)"><path d="M11.5 9.05c.91-.94 2.11-1.55 3.5-1.55 1.45 0 2.85.57 3.88 1.61A5.47 5.47 0 0 1 20.5 13v7.5h-2V13c0-.93-.37-1.82-1.03-2.48A3.49 3.49 0 0 0 15 9.5c-.93 0-1.82.36-2.48 1.02-.66.66-1.02 1.55-1.02 2.48v7.5h-2V8h2v1.05ZM4.5 6c-.4 0-.78-.16-1.07-.44a1.53 1.53 0 0 1 0-2.13 1.53 1.53 0 0 1 2.13 0c.28.29.44.67.44 1.07 0 .39-.16.77-.44 1.06-.29.28-.67.44-1.06.44Zm-1 2h2v12.5h-2V8Z" fill="#000"/></g></svg>

<svg width="24.000000" height="24.000000" viewBox="0 0 24 24" fill="none" xmlns="http://www.w3.org/2000/svg" xmlns:xlink="http://www.w3.org/1999/xlink">
	<desc>
			Created with Pixso.
	</desc>
	<defs>
		<clipPath id="clip246_4776">
			<rect id="Icon-Linkedin" width="24.000000" height="24.000000" fill="white" fill-opacity="0"/>
		</clipPath>
	</defs>
	<g clip-path="url(#clip246_4776)">
		<path id="Vector" d="M11.5 9.05C12.41 8.11 13.61 7.5 15 7.5C16.45 7.5 17.85 8.07 18.88 9.11C19.92 10.14 20.5 11.54 20.5 13L20.5 20.5L18.5 20.5L18.5 13C18.5 12.07 18.13 11.18 17.47 10.52C16.81 9.86 15.92 9.5 15 9.5C14.07 9.5 13.18 9.86 12.52 10.52C11.86 11.18 11.5 12.07 11.5 13L11.5 20.5L9.5 20.5L9.5 8L11.5 8L11.5 9.05ZM4.5 6C4.1 6 3.72 5.84 3.43 5.56C3.15 5.27 3 4.89 3 4.5C3 4.1 3.15 3.72 3.43 3.43C3.72 3.15 4.1 3 4.5 3C4.89 3 5.27 3.15 5.56 3.43C5.84 3.72 6 4.1 6 4.5C6 4.89 5.84 5.27 5.56 5.56C5.27 5.84 4.89 6 4.5 6ZM3.5 8L5.5 8L5.5 20.5L3.5 20.5L3.5 8Z" fill="#000000" fill-opacity="1.000000" fill-rule="nonzero"/>
	</g>
</svg>
